modules/themify-icons/icons/exchange-vertical.svg

<?xml version="1.0" encoding="utf-8"?>
<!-- Generated by IcoMoon.io -->
<!DOCTYPE svg PUBLIC "-//W3C//DTD SVG 1.1//EN" "http://www.w3.org/Graphics/SVG/1.1/DTD/svg11.dtd">
<svg version="1.1" xmlns="http://www.w3.org/2000/svg" xmlns:xlink="http://www.w3.org/1999/xlink" width="17" height="17" viewBox="0 0 17 17">
<g>
</g>
	<path d="M6 15.043v-7.043h-1v7.043l-3.646-3.646-0.707 0.707 4.853 4.853 4.854-4.854-0.707-0.707-3.647 3.647zM5.488 15.531h0.023l-0.011 0.012-0.012-0.012zM15.646 5.604l-3.646-3.647v7.096h-1v-7.096l-3.646 3.647-0.708-0.708 4.854-4.853 4.854 4.854-0.708 0.707z" fill="#000000" />
</svg>

<svg xmlns="http://www.w3.org/2000/svg" width="17" height="17"><path d="M6 15.043V8H5v7.043l-3.646-3.646-.707.707L5.5 16.957l4.854-4.854-.707-.707L6 15.043zm-.512.488h.023l-.011.012-.012-.012zm10.158-9.927L12 1.957v7.096h-1V1.957L7.354 5.604l-.708-.708L11.5.043l4.854 4.854-.708.707z"/></svg>
